SVG-Logos/Frameworks-Languages-IDEs/Process/prplx master/chai.svg

<?xml version="1.0" encoding="UTF-8"?>
<svg width="99px" height="114px" viewBox="0 0 99 114" version="1.1" xmlns="http://www.w3.org/2000/svg" xmlns:xlink="http://www.w3.org/1999/xlink">
    <!-- Generator: Sketch 46.2 (44496) - http://www.bohemiancoding.com/sketch -->
    <title>chai</title>
    <desc>Created with Sketch.</desc>
    <defs>
        <linearGradient x1="50%" y1="45.2268017%" x2="50%" y2="100%" id="linearGradient-1">
            <stop stop-color="#F7F6F3" offset="0%"></stop>
            <stop stop-color="#FEF6D5" offset="100%"></stop>
        </linearGradient>
    </defs>
    <g id="Page-1" stroke="none" stroke-width="1" fill="none" fill-rule="evenodd">
        <g id="Logos" transform="translate(-31.000000, -1300.000000)" fill-rule="nonzero">
            <g id="chai" transform="translate(31.000000, 1300.000000)">
                <path d="M4.28136328,83.0356229 L49.4988398,109.071246 L94.7186367,83.0356229 L94.7186367,30.965534 L49.4988398,4.93068242 L4.28136328,30.965534 L4.28136328,83.0356229 L4.28136328,83.0356229 Z M49.4988398,114 L0,85.4996143 L0,28.501157 L49.4988398,0 L99,28.501157 L99,85.4996143 L49.4988398,114 L49.4988398,114 Z" id="Shape" fill="#A1070C"></path>
                <polyline id="Shape" fill="url(#linearGradient-1)" points="4 31.249904 50 5 96 31.249904 96 83.750096 50 110 4 83.750096 4 31.249904"></polyline>
                <path d="M70,37.7377049 C70,39.814218 69.5959634,41.8770389 68.7878788,43.9262297 C67.9797938,45.97542 66.8956296,47.874308 65.5353533,49.6229509 C64.1750774,51.3715935 62.6060694,52.9016328 60.8282828,54.2131146 C59.0504959,55.5245968 57.2053968,56.4672102 55.2929292,57.0409835 L54.4444444,55.6065573 C55.575763,55.032784 56.6127897,54.2950863 57.5555553,53.3934425 C58.4983209,52.4917987 59.3063937,51.4740492 59.9797977,50.3401639 C60.653202,49.2062785 61.1717154,48.0041047 61.5353533,46.7336064 C61.8989917,45.4631085 62.080808,44.1721378 62.080808,42.8606556 C62.080808,41.3579158 61.8653221,39.9371651 61.4343434,38.5983605 C61.0033647,37.2595561 60.3703743,36.091535 59.5353533,35.0942623 C58.7003324,34.0969895 57.6700397,33.3114783 56.4444444,32.7377049 C55.2188491,32.1639315 53.8114555,31.8770492 52.2222223,31.8770492 C50.2828187,31.8770492 48.5050584,32.259559 46.8888888,33.0245902 C45.2727192,33.7896213 43.8181884,34.8210318 42.5252524,36.1188524 C41.2323168,37.4166731 40.107749,38.9057293 39.151515,40.5860655 C38.1952813,42.2664018 37.4006765,44.0286792 36.7676767,45.8729508 C36.1346769,47.7172223 35.6565672,49.5819578 35.3333333,51.4672132 C35.0100994,53.3524683 34.8484848,55.1284069 34.8484848,56.795082 C34.8484848,58.4890794 35.0235672,60.237696 35.3737373,62.0409836 C35.7239074,63.8442713 36.2356868,65.6202099 36.9090909,67.3688524 C37.5824949,69.1174949 38.4175034,70.7704841 39.4141415,72.327869 C40.4107795,73.8852535 41.5622829,75.2513603 42.8686869,76.4262296 C44.1750908,77.6010988 45.6296217,78.5368817 47.2323233,79.2336067 C48.8350249,79.9303313 50.5791152,80.2786886 52.4646464,80.2786886 C53.757582,80.2786886 55.016829,80.1010948 56.2424242,79.7459016 C57.4680195,79.3907087 58.6464589,78.9125714 59.7777775,78.3114754 C60.9090965,77.7103793 61.9797927,77.000004 62.989899,76.180328 C64.000005,75.3606516 64.9360225,74.4726825 65.7979798,73.5163932 L67.1313129,74.8278689 C65.946122,76.4125761 64.5387287,77.9357849 62.9090907,79.3975408 C61.2794532,80.8592971 59.5218949,82.157098 57.6363636,83.2909837 C55.7508324,84.4248691 53.7777878,85.3264994 51.7171716,85.9959016 C49.6565553,86.6653039 47.6161716,87 45.5959597,87 C43.6296198,87 41.7777863,86.6516427 40.0404041,85.9549181 C38.3030216,85.2581931 36.7070779,84.3155797 35.2525252,83.1270492 C33.7979725,81.9385188 32.4983222,80.54509 31.3535353,78.9467212 C30.2087485,77.3483528 29.2390612,75.6475499 28.4444444,73.8442622 C27.6498277,72.0409746 27.0437731,70.1830697 26.6262626,68.2704919 C26.2087521,66.3579138 26,64.4863481 26,62.6557377 C26,60.0054514 26.4377061,57.2800688 27.3131313,54.4795083 C28.1885565,51.6789479 29.3939317,48.9603955 30.9292929,46.3237703 C32.4646541,43.6871452 34.2760838,41.1940006 36.3636363,38.8442621 C38.4511889,36.4945238 40.7003244,34.4453639 43.111111,32.6967213 C45.5218976,30.9480787 48.0403907,29.5614805 50.6666666,28.5368853 C53.2929421,27.51229 55.9124448,27 58.5252523,27 C60.1414219,27 61.6498243,27.2390686 63.050505,27.7172131 C64.4511852,28.1953576 65.6632942,28.8852414 66.6868685,29.7868852 C67.7104428,30.6885291 68.5185153,31.8087365 69.1111109,33.147541 C69.7037066,34.4863455 70,36.0163848 70,37.7377049 L70,37.7377049 Z" id="Shape" fill="#A1070C"></path>
            </g>
        </g>
    </g>
</svg>

<svg xmlns="http://www.w3.org/2000/svg" viewBox="0 0 99 114"><defs><linearGradient id="a" x1="50%" x2="50%" y1="45.227%" y2="100%"><stop offset="0%" stop-color="#F7F6F3"/><stop offset="100%" stop-color="#FEF6D5"/></linearGradient></defs><g fill="none" fill-rule="nonzero"><path fill="#A1070C" d="M4.281 83.036 49.5 109.07l45.22-26.035v-52.07L49.499 4.93 4.28 30.966v52.07ZM49.5 114 0 85.5V28.5L49.499 0 99 28.501V85.5L49.499 114Z"/><path fill="url(#a)" d="M4 31.25 50 5l46 26.25v52.5L50 110 4 83.75v-52.5"/><path fill="#A1070C" d="M70 37.738c0 2.076-.404 4.139-1.212 6.188a22.938 22.938 0 0 1-3.253 5.697 23.95 23.95 0 0 1-4.707 4.59c-1.778 1.312-3.623 2.254-5.535 2.828l-.849-1.434a12.977 12.977 0 0 0 3.112-2.214c.942-.901 1.75-1.919 2.424-3.053a15.253 15.253 0 0 0 1.555-3.606c.364-1.27.546-2.562.546-3.873 0-1.503-.216-2.924-.647-4.263-.43-1.338-1.064-2.506-1.899-3.504a8.886 8.886 0 0 0-3.09-2.356c-1.226-.574-2.634-.861-4.223-.861-1.94 0-3.717.383-5.333 1.148a15.462 15.462 0 0 0-4.364 3.094 21.015 21.015 0 0 0-3.373 4.467 31.034 31.034 0 0 0-2.384 5.287 35.893 35.893 0 0 0-1.435 5.594c-.323 1.885-.485 3.661-.485 5.328a27.5 27.5 0 0 0 .526 5.246c.35 1.803.862 3.58 1.535 5.328a27.526 27.526 0 0 0 2.505 4.959 19.9 19.9 0 0 0 3.455 4.098 16.062 16.062 0 0 0 4.363 2.808c1.603.696 3.347 1.045 5.233 1.045 1.293 0 2.552-.178 3.777-.533a18.477 18.477 0 0 0 3.536-1.435 19.927 19.927 0 0 0 3.212-2.13 24.874 24.874 0 0 0 2.808-2.665l1.333 1.312c-1.185 1.585-2.592 3.108-4.222 4.57a34.521 34.521 0 0 1-5.273 3.893 28.6 28.6 0 0 1-5.919 2.705c-2.06.67-4.1 1.004-6.121 1.004-1.966 0-3.818-.348-5.556-1.045a18.275 18.275 0 0 1-4.787-2.828 21.616 21.616 0 0 1-3.9-4.18 28.42 28.42 0 0 1-2.909-5.103 29.272 29.272 0 0 1-1.818-5.574A26.283 26.283 0 0 1 26 62.656c0-2.65.438-5.376 1.313-8.176.876-2.801 2.08-5.52 3.616-8.156a46.414 46.414 0 0 1 5.435-7.48c2.087-2.35 4.336-4.399 6.747-6.147 2.41-1.749 4.93-3.136 7.556-4.16C53.293 27.512 55.912 27 58.525 27c1.616 0 3.125.24 4.526.717 1.4.478 2.612 1.168 3.636 2.07 1.023.902 1.832 2.022 2.424 3.36.593 1.34.889 2.87.889 4.59Z"/></g></svg>
